X:1
T:Peacock's Feather (Schottis)
R:schottis
Z:2006 Brian Wilson <Brian.Wilson@alumni.brown.edu>
Z:Ola Backstrom, Track 2
M:4/4
L:1/8
K:D
|: "D"F>E F>D "D"A2 A2 | "D"d>e f>d "Bm"B2 e>f
|  "G"g>e f>d "Em"e>d c>B | "D"A>G F>D "A"E>E E>D
|  "D"F>E F>D "D"A2 A2 | "D"d>e f>d "Bm"B2 e>f | "G"g>e f>d "Em"e>d c>B
|[1 "A"A>d d>c "D"d4 :|[2 "A"A>d d>c "D"d2 f>g
|: "D"a>f g>e "D"f>d e>c | "D"d>e f>d "Bm"B2 e>f
|  "G"g>e f>d "Em"e>d c>B | "D"A>G F>D "A"E>E E>D
|  "D"F>E F>D "D"A2 A2 | "D"d>e f>d "Bm"B2 e>f | "G"g>e f>d "Em"e>d c>B
|[1 "A"A>d d>c "D"d2 f>g :|[2 "A"A>d d>c "D"d4 ||
